icons/guidance-icons/manoeuvers-sdk/right-roundabout-exit10.svg

<svg width="80" height="80" viewBox="0 0 80 80" fill="none" xmlns="http://www.w3.org/2000/svg">
<path d="M65.7099 30C65.7899 29.18 65.8399 28.35 65.8399 27.5C65.8399 26.65 65.8399 25.83 65.7099 25H60.3999C60.209 23.0557 59.7374 21.1492 58.9999 19.34L63.4899 16.74C62.7993 15.224 61.9655 13.7775 60.9999 12.42L56.5599 15C55.392 13.3941 53.9975 11.9659 52.4199 10.76L54.9299 6.40004C53.5733 5.42746 52.1267 4.58696 50.6099 3.89004L48.1099 8.21004C46.2725 7.41658 44.3283 6.89769 42.3399 6.67004V1.67004C41.5099 1.59004 40.6799 1.54004 39.8399 1.54004C38.9999 1.54004 38.1599 1.59004 37.3399 1.67004V6.69004C35.3688 6.94839 33.4456 7.49068 31.6299 8.30004L29.0699 3.86004C27.551 4.55505 26.1012 5.3921 24.7399 6.36004L27.3599 10.9C25.8344 12.1036 24.4876 13.5177 23.3599 15.1L18.7099 12.42C17.7373 13.7767 16.8968 15.2233 16.1999 16.74L20.9599 19.49C20.2562 21.2557 19.7986 23.1097 19.5999 25H13.9999C13.9199 25.83 13.8799 26.66 13.8799 27.5C13.8799 28.34 13.8799 29.18 13.9999 30H19.7899C20.2369 33.0591 21.3723 35.9769 23.1106 38.5335C24.849 41.0901 27.1448 43.2188 29.8253 44.7593C32.5057 46.2997 35.5008 47.2118 38.5849 47.4267C41.669 47.6417 44.7617 47.1538 47.6299 46L50.6299 51.16C52.1467 50.4631 53.5933 49.6226 54.9499 48.65L51.9999 43.58C53.4994 42.489 54.8448 41.2008 55.9999 39.75L60.9999 42.61C61.9747 41.2513 62.8153 39.8012 63.5099 38.28L58.6599 35.48C59.4478 33.7383 59.9832 31.893 60.2499 30H65.7099ZM39.9999 42.5C36.9343 42.5 33.9375 41.591 31.3885 39.8878C28.8396 38.1847 26.8529 35.7639 25.6797 32.9316C24.5066 30.0994 24.1996 26.9828 24.7977 23.9761C25.3958 20.9694 26.872 18.2076 29.0397 16.0399C31.2074 13.8722 33.9693 12.3959 36.976 11.7979C39.9827 11.1998 43.0992 11.5067 45.9315 12.6799C48.7637 13.8531 51.1845 15.8397 52.8877 18.3887C54.5908 20.9377 55.4999 23.9344 55.4999 27C55.4972 31.1101 53.8634 35.051 50.9571 37.9573C48.0509 40.8635 44.1099 42.4974 39.9999 42.5Z" fill="#C3CDDE" fill-opacity="0.35"/>
<path d="M46.45 47C45.4492 47.3263 44.5769 47.9602 43.9574 48.8113C43.3379 49.6624 43.0029 50.6874 43 51.74V80H37V51.74C37.001 49.4162 37.7379 47.1524 39.105 45.2732C40.4721 43.3941 42.3993 41.9962 44.61 41.28C47.8782 40.2331 50.6887 38.0972 52.5724 35.2286C54.4562 32.36 55.2993 28.9322 54.9612 25.5171C54.6231 22.102 53.1242 18.9061 50.7145 16.4626C48.3048 14.0191 45.1301 12.4757 41.72 12.09C39.1454 11.7861 36.5359 12.1548 34.1462 13.1599C31.7564 14.1651 29.668 15.7724 28.0846 17.8252C26.5012 19.878 25.4769 22.3061 25.1115 24.8728C24.7462 27.4394 25.0523 30.0569 26 32.47C26.7577 34.4467 26.9229 36.6013 26.4754 38.6704C26.0278 40.7395 24.9869 42.6332 23.48 44.12L17.36 50.24L29.61 49.89L30 56H7V33L13.11 33.36L12.75 45.94L12.98 46.17L19.27 39.88C19.9491 39.2185 20.4212 38.3738 20.6289 37.4488C20.8366 36.5238 20.771 35.5584 20.44 34.67C18.9065 30.7518 18.5854 26.4632 19.5184 22.3603C20.4513 18.2574 22.5952 14.5293 25.6722 11.6594C28.7493 8.78951 32.6174 6.91012 36.7753 6.26488C40.9332 5.61964 45.189 6.23831 48.9911 8.04068C52.7932 9.84304 55.9662 12.746 58.0987 16.3732C60.2312 20.0004 61.225 24.1846 60.9511 28.3833C60.6773 32.582 59.1484 36.6017 56.5628 39.9211C53.9772 43.2406 50.454 45.7068 46.45 47ZM36.09 18.48H32.84L27 22L28.61 24.49L32.46 22.13V36H36.08L36.09 18.48ZM45.27 18.14C41.05 18.14 38.84 21.39 38.84 27.26C38.84 33.13 41.05 36.42 45.27 36.42C49.49 36.42 51.71 33.11 51.71 27.26C51.71 21.41 49.5 18.14 45.27 18.14ZM45.27 20.89C47.09 20.89 47.92 22.4 47.92 27.26C47.92 32.12 47.09 33.63 45.27 33.63C43.45 33.63 42.64 32 42.64 27.26C42.64 22.52 43.45 20.89 45.27 20.89Z" fill="white"/>
</svg>

<svg xmlns="http://www.w3.org/2000/svg" viewBox="0 0 80 80"><path d="M65.71,30c.08-.82.13-1.65.13-2.5s0-1.67-.13-2.5H60.4A20.23,20.23,0,0,0,59,19.34l4.49-2.6A26.16,26.16,0,0,0,61,12.42L56.56,15a20.55,20.55,0,0,0-4.14-4.24l2.51-4.36a26.16,26.16,0,0,0-4.32-2.51l-2.5,4.32a20.41,20.41,0,0,0-5.77-1.54v-5c-.83-.08-1.66-.13-2.5-.13s-1.68.05-2.5.13V6.69A20.6,20.6,0,0,0,31.63,8.3L29.07,3.86a26.5,26.5,0,0,0-4.33,2.5l2.62,4.54a20.52,20.52,0,0,0-4,4.2l-4.65-2.68a26.16,26.16,0,0,0-2.51,4.32l4.76,2.75A20.74,20.74,0,0,0,19.6,25H14c-.08.83-.12,1.66-.12,2.5s0,1.68.12,2.5h5.79A20.43,20.43,0,0,0,47.63,46l3,5.16a26.16,26.16,0,0,0,4.32-2.51L52,43.58a20.62,20.62,0,0,0,4-3.83L61,42.61a25.84,25.84,0,0,0,2.51-4.33l-4.85-2.8A20.1,20.1,0,0,0,60.25,30ZM40,42.5A15.5,15.5,0,1,1,55.5,27,15.51,15.51,0,0,1,40,42.5Z" style="fill:#d1def4;opacity:0.35000000000000003"/><path d="M46.45,47A5,5,0,0,0,43,51.74V80H37V51.74a11,11,0,0,1,7.61-10.46,15,15,0,0,0-2.89-29.19A15,15,0,0,0,26,32.47a10.89,10.89,0,0,1-2.52,11.65l-6.12,6.12,12.25-.35L30,56H7V33l6.11.36-.36,12.58.23.23,6.29-6.29a4.89,4.89,0,0,0,1.17-5.21A21,21,0,1,1,46.45,47ZM36.09,18.48H32.84L27,22l1.61,2.49,3.85-2.36V36h3.62Zm9.18-.34c-4.22,0-6.43,3.25-6.43,9.12s2.21,9.16,6.43,9.16,6.44-3.31,6.44-9.16S49.5,18.14,45.27,18.14Zm0,2.75c1.82,0,2.65,1.51,2.65,6.37s-.83,6.37-2.65,6.37S42.64,32,42.64,27.26,43.45,20.89,45.27,20.89Z" style="fill:#fff"/></svg>
